X: 33230
T: Puffin Isle
R: jig
M: 6/8
K: Dmajor
|:AFA ABA|FED F2G|AFA GFE|E3 D2F|
AFA ABA|FED F2B|A2F EGE|1 D3 D2F:|2 D3 DFA||
|:B2B BcB|AFA A2A|B2B dAF|E3 F2A|
B2B BcB|AFA E2B|A2F EGE|1 D3 DFA:|2 D3 D2F||

